img/social/twitter.svg

<?xml version="1.0" encoding="utf-8"?>
<!-- Generate more at customizr.net -->
<!DOCTYPE svg PUBLIC "-//W3C//DTD SVG 1.1//EN" "http://www.w3.org/Graphics/SVG/1.1/DTD/svg11.dtd">
<svg id="twitter" class="custom-icon" version="1.1" xmlns="http://www.w3.org/2000/svg" xmlns:xlink="http://www.w3.org/1999/xlink" viewBox="0 0 100 100" style="height:100px;width:100px;"><circle class="outer-shape" cx="50" cy="50" r="48" style="opacity: 1; fill: rgb(165, 172, 186);"></circle>
	<path class="inner-shape" style="opacity:1;fill:#f7f7f7;" transform="translate(25,25) scale(0.5)" d="M99.001,19.428c-3.606,1.608-7.48,2.695-11.547,3.184c4.15-2.503,7.338-6.466,8.841-11.189 c-3.885,2.318-8.187,4-12.768,4.908c-3.667-3.931-8.893-6.387-14.676-6.387c-11.104,0-20.107,9.054-20.107,20.223 c0,1.585,0.177,3.128,0.52,4.609c-16.71-0.845-31.525-8.895-41.442-21.131C6.092,16.633,5.1,20.107,5.1,23.813 c0,7.017,3.55,13.208,8.945,16.834c-3.296-0.104-6.397-1.014-9.106-2.529c-0.002,0.085-0.002,0.17-0.002,0.255 c0,9.799,6.931,17.972,16.129,19.831c-1.688,0.463-3.463,0.71-5.297,0.71c-1.296,0-2.555-0.127-3.783-0.363 c2.559,8.034,9.984,13.882,18.782,14.045c-6.881,5.424-15.551,8.657-24.971,8.657c-1.623,0-3.223-0.096-4.796-0.282 c8.898,5.738,19.467,9.087,30.82,9.087c36.982,0,57.206-30.817,57.206-57.543c0-0.877-0.02-1.748-0.059-2.617 C92.896,27.045,96.305,23.482,99.001,19.428z"></path>
</svg>

<?xml version="1.0" encoding="UTF-8" standalone="no"?>
<!DOCTYPE svg PUBLIC "-//W3C//DTD SVG 1.1//EN" "http://www.w3.org/Graphics/SVG/1.1/DTD/svg11.dtd">
<svg width="100%" height="100%" viewBox="0 0 96 96" version="1.1" xmlns="http://www.w3.org/2000/svg" xmlns:xlink="http://www.w3.org/1999/xlink" xml:space="preserve" style="fill-rule:evenodd;clip-rule:evenodd;stroke-linejoin:round;stroke-miterlimit:1.41421;">
    <g transform="matrix(1,0,0,1,-2,-2)">
        <circle cx="50" cy="50" r="48" style="fill:rgb(165,172,186);"/>
        <g transform="matrix(0.5,0,0,0.5,25,25)">
            <path d="M99.001,19.428C95.395,21.036 91.521,22.123 87.454,22.612C91.604,20.109 94.792,16.146 96.295,11.423C92.41,13.741 88.108,15.423 83.527,16.331C79.86,12.4 74.634,9.944 68.851,9.944C57.747,9.944 48.744,18.998 48.744,30.167C48.744,31.752 48.921,33.295 49.264,34.776C32.554,33.931 17.739,25.881 7.822,13.645C6.092,16.633 5.1,20.107 5.1,23.813C5.1,30.83 8.65,37.021 14.045,40.647C10.749,40.543 7.648,39.633 4.939,38.118C4.937,38.203 4.937,38.288 4.937,38.373C4.937,48.172 11.868,56.345 21.066,58.204C19.378,58.667 17.603,58.914 15.769,58.914C14.473,58.914 13.214,58.787 11.986,58.551C14.545,66.585 21.97,72.433 30.768,72.596C23.887,78.02 15.217,81.253 5.797,81.253C4.174,81.253 2.574,81.157 1.001,80.971C9.899,86.709 20.468,90.058 31.821,90.058C68.803,90.058 89.027,59.241 89.027,32.515C89.027,31.638 89.007,30.767 88.968,29.898C92.896,27.045 96.305,23.482 99.001,19.428Z" style="fill:rgb(247,247,247);fill-rule:nonzero;"/>
        </g>
    </g>
</svg>
